X: 1
T: Dumfries House
O: Athole
S: arr. T. Traub 11-25-98, mods 8-29-03
R: Jig
M: 6/8
L: 1/8
K: G
   D \
| "G"G3 G2 g | "G"dBG     GAB | "C"cde "G"dcB | "D"AFD DEF \
| "G"G3 G2 g | "G"dBG "Em"GAB |"Am"cEA "D"FEF | "G"G3  G2 :|
|: B/c/ \
| "G"dBd dBd | "C"gag     gfe | "G"dBd    dcB | "D"AFD D2B/c/ \
| "G"dBd dBd |"Em"gag  "C"gfe | "G"dcB "D"AGF | "G"G3  G2 :|
